**kern	**kern	**dynam
*part1	*part1	*part1
*staff2	*staff1	*
*I"Piano	*	*
*clefG2	*clefG2	*
*k[b-e-a-]	*k[b-e-a-]	*
=1	=1	=1
.	(8qff#X/	.
8r	8gg'L)	.
.	(8qaa#X/	.
8g'L 8dd	8bbn')	.
.	(8qccc#X/	.
8bn'J 8gg	8ddd'J)	.
=	=	=
.	(8qfff#X/	.
8dd' 8bbn	8ggg')	.
8r	8r	.
8r	8r	.
=	=	=
((4.b-X [4.cc 4.een	8r	.
.	(8qff#X/	.
.	8gg'L)	.
.	(8qaa-X/	.
.	8gg'J)	.
=	=	=
.	(8qbbn/	.
8an)) 8cc] 8ff	8ccc'L)	.
.	(8qeeen/	.
8r	8fff')	.
.	(8qggg/	.
8r	8fff'J)	.
=	=	=
((4.a-X [4.b- 4.dd	8r	.
.	(8qeen/	.
.	8ff'L)	.
.	(8qgg/	.
.	8ff'J)	.
=	=	=
.	(8qaan/	.
8g)) 8b-] 8ee-X	8bb-'L)	.
.	(8qddd/	.
8r	8eee-')	.
.	(8qfff/	.
8r	8eee-'J)	.
=	=	=
[4.c [4.e- [4.g-X [4.an	8r	p
.	(8qgg#X/	.
.	8aan'L)	.
.	(8qbb-/	.
.	8aa'J)	.
=	=	=
*-	*-	*-
!!!system-decoration: {(s1,s2)}
